X:1
T:Title
%%score { ( 1 4 ) | ( 2 3 ) }
L:1/8
Q:1/4=96
M:4/4
K:Bb
V:1 treble nm="Grand Piano"
V:4 treble 
V:2 bass 
V:3 bass 
V:1
 [DB]2 [DF]>[EG] [DF]3 [G,CE] | [B,D]F[K:bass][F,CE][A,C] [D,B,]3 [F,_A,D] | %2
w: Thoro~Harris * * * *||
 [F,A,C][K:treble]FGA BG[CA]c |[M:7/8] c z A G F3 |[M:1/8] F |[M:4/4] A2 B2 c3 F | c3 F d3 f | %7
w: |||||
 f2 e2 z4 | [Ge]2 [EFA]2 [DFB]4 |] %9
w: ||
V:2
 [B,,F,]2 [B,,B,]>[B,,B,] [B,,B,]3 E, | z D z E, B,,3 =B,, | z A,[F,C]-[F,A,C] B,,-[B,,B,] z A, | %3
[M:7/8] z[K:treble] B[K:bass] C,2 [F,A,]3 |[M:1/8] [F,A,] | %5
[M:4/4] [F,CE]2 [F,B,D]2 [F,A,E]3 [F,A,] | [A,EF]3 [F,E] [B,DF]3 [CEA] | D4 [B,G]2[K:bass] z2 | %8
 [C,C]2 F,2 B,,4 |] %9
V:3
 x8 | F,2 F,,2 z4 | C,2 .B,2 .G,2 F,,2 |[M:7/8] [B,,G,]2[K:treble][K:bass] z z z z2 |[M:1/8] x | %5
[M:4/4] x8 | x8 | [B,B]F,[G,G][A,C] z[K:bass] D,[E,B,][D,=B,] | x8 |] %9
V:4
 x8 | x2[K:bass] x6 | z4[K:treble] D2 E2 |[M:7/8] D2 [B,=E]2 z z2 |[M:1/8] x |[M:4/4] x8 | x8 | %7
 z A z ^F ed[Gc][_Ad] | x8 |] %9

